img/visa.svg

<svg width="48" height="32" viewBox="0 0 48 32" fill="none" xmlns="http://www.w3.org/2000/svg">
<g id="visa-color_large">
<rect id="card_bg" width="48" height="32" rx="4" fill="#2A2A6C"/>
<path id="visa-logo" fill-rule="evenodd" clip-rule="evenodd" d="M30.35 17.67C30.3561 16.1453 29.0986 15.4867 28.1227 14.9756C27.5049 14.6521 27 14.3877 27 14C27 13.67 27.32 13.32 28 13.23C28.8093 13.1499 29.6251 13.2917 30.36 13.64L30.78 11.64C30.0636 11.3714 29.3051 11.2325 28.54 11.23C26.18 11.23 24.54 12.49 24.54 14.29C24.54 15.62 25.73 16.36 26.63 16.8C27.53 17.24 27.88 17.55 27.87 17.95C27.87 18.57 27.13 18.85 26.44 18.86C25.5889 18.871 24.749 18.6644 24 18.26L23.57 20.26C24.4175 20.5908 25.3203 20.7571 26.23 20.75C28.74 20.75 30.39 19.51 30.4 17.59L30.35 17.67ZM23.86 11.39L21.86 20.64H19.46L21.46 11.39H23.86ZM33.92 17.39L35.18 13.92L35.91 17.39H33.92ZM38.81 20.67H36.59L36.3 19.29H33.29L32.8 20.67H30.28L33.87 12.1C34.0355 11.6923 34.43 11.424 34.87 11.42H36.87L38.81 20.67ZM16.61 20.61L20.49 11.36H17.89L15.4 17.65L14.4 12.3C14.3115 11.7563 13.8408 11.3578 13.29 11.36H9.22L9.16 11.63C9.97634 11.7897 10.7693 12.0518 11.52 12.41C11.8398 12.5603 12.0564 12.8683 12.09 13.22L14 20.61H16.61Z" fill="white"/>
</g>
</svg>

<svg width="48" height="32" fill="none" xmlns="http://www.w3.org/2000/svg"><rect width="48" height="32" rx="4" fill="#2A2A6C"/><path fill-rule="evenodd" clip-rule="evenodd" d="M30.35 17.67c.006-1.525-1.251-2.183-2.227-2.694C27.505 14.652 27 14.388 27 14c0-.33.32-.68 1-.77a4.48 4.48 0 0 1 2.36.41l.42-2a6.44 6.44 0 0 0-2.24-.41c-2.36 0-4 1.26-4 3.06 0 1.33 1.19 2.07 2.09 2.51.9.44 1.25.75 1.24 1.15 0 .62-.74.9-1.43.91a5 5 0 0 1-2.44-.6l-.43 2c.848.33 1.75.497 2.66.49 2.51 0 4.16-1.24 4.17-3.16l-.05.08Zm-6.49-6.28-2 9.25h-2.4l2-9.25h2.4Zm10.06 6 1.26-3.47.73 3.47h-1.99Zm4.89 3.28h-2.22l-.29-1.38h-3.01l-.49 1.38h-2.52l3.59-8.57a1.09 1.09 0 0 1 1-.68h2l1.94 9.25Zm-22.2-.06 3.88-9.25h-2.6l-2.49 6.29-1-5.35a1.12 1.12 0 0 0-1.11-.94H9.22l-.06.27a9.89 9.89 0 0 1 2.36.78 1 1 0 0 1 .57.81L14 20.61h2.61Z" fill="#fff"/></svg>
